X:53
M:6/8
L:1/8
K:D
|:a|(af)a (af)a|a2A a2A|(ge)g (ge)g|g2G g2G|(af)a (af)a|bag fed|(e/f/g)f edc|d3 D2:|

